Yaru++/devices/16/drive-multidisk.svg

<svg height="16" width="16" xmlns="http://www.w3.org/2000/svg">
  <g fill="#808080">
    <path d="m6.994 2c-1.258.015-2.179-.03-2.931.385a1.88 1.88 0 0 0 -.838.998c-.165.439-.225.96-.225 1.617v8c0 .658.06 1.179.225 1.617.164.439.461.79.838.998.752.416 1.673.37 2.931.385h5.012c1.258-.014 2.179.03 2.932-.385a1.88 1.88 0 0 0 .838-.998c.164-.438.224-.96.224-1.617v-8c0-.658-.06-1.178-.225-1.617a1.88 1.88 0 0 0 -.837-.998c-.753-.416-1.674-.37-2.932-.385h-5.008zm.006 1h5c1.259.015 2.087.06 2.453.262.184.101.29.213.387.472.097.26.16.674.16 1.266v8c0 .592-.063 1.006-.16 1.266-.098.26-.203.371-.387.472-.366.202-1.194.247-2.453.262h-5c-1.258-.015-2.09-.06-2.455-.262-.183-.1-.287-.212-.385-.472-.097-.26-.16-.674-.16-1.266v-8c0-.592.063-1.006.16-1.266.098-.26.202-.371.385-.472.365-.202 1.195-.247 2.455-.262z"/>
    <path d="m9.795 5.012a4.487 4.487 0 0 0 -3.033.918 4.506 4.506 0 0 0 -1.16 5.82 4.508 4.508 0 0 0 5.62 1.908 4.51 4.51 0 0 0 2.628-5.324l-.131-.482-.967.26.13.482a3.494 3.494 0 0 1 -2.042 4.138 3.494 3.494 0 0 1 -4.371-1.482 3.494 3.494 0 0 1 5.12-4.547l-.644.645.707.707.676-.676h.002l.354-.355.353-.352-.353-.354a4.494 4.494 0 0 0 -2.889-1.306z"/>
    <path d="m9.5 8a1.5 1.5 0 0 0 -1.5 1.5 1.5 1.5 0 0 0 1.5 1.5 1.5 1.5 0 0 0 1.5-1.5 1.5 1.5 0 0 0 -1.5-1.5zm0 1a.5.5 0 0 1 .5.5.5.5 0 0 1 -.5.5.5.5 0 0 1 -.5-.5.5.5 0 0 1 .5-.5z"/>
    <path d="m4.994 0c-1.258.015-2.179-.03-2.931.385a1.88 1.88 0 0 0 -.838.998c-.165.439-.225.96-.225 1.617v9h1v-9c0-.592.063-1.006.16-1.266.098-.26.202-.371.385-.472.366-.202 1.196-.247 2.455-.262h7v-1h-7.002z"/>
  </g>
</svg>

<svg xmlns="http://www.w3.org/2000/svg" width="16" height="16">
 <g fill="#808080">
  <path d="M6.994 2c-1.258.015-2.179-.03-2.931.385a1.88 1.88 0 0 0-.838.998C3.06 3.822 3 4.343 3 5v8c0 .658.06 1.179.225 1.617.164.439.461.79.838.998.752.416 1.673.37 2.931.385H12.006c1.258-.014 2.179.03 2.932-.385a1.88 1.88 0 0 0 .838-.998c.164-.438.224-.96.224-1.617V5c0-.658-.06-1.178-.225-1.617a1.88 1.88 0 0 0-.837-.998c-.753-.416-1.674-.37-2.932-.385H6.998zM7 3h5c1.259.015 2.087.06 2.453.262.184.101.29.213.387.472.097.26.16.674.16 1.266v8c0 .592-.063 1.006-.16 1.266-.098.26-.203.371-.387.472-.366.202-1.194.247-2.453.262H7c-1.258-.015-2.09-.06-2.455-.262-.183-.1-.287-.212-.385-.472C4.063 14.006 4 13.592 4 13V5c0-.592.063-1.006.16-1.266.098-.26.202-.371.385-.472C4.91 3.06 5.74 3.015 7 3z" color="#000" font-family="sans-serif" font-weight="400" overflow="visible"/>
  <path d="M9.795 5.012a4.487 4.487 0 0 0-3.033.918 4.506 4.506 0 0 0-1.16 5.82 4.508 4.508 0 0 0 5.62 1.908 4.51 4.51 0 0 0 2.628-5.324l-.131-.482-.967.26.13.482a3.494 3.494 0 0 1-2.042 4.138 3.494 3.494 0 0 1-4.371-1.482 3.494 3.494 0 0 1 5.12-4.547l-.644.645.707.707.676-.676h.002l.354-.355.353-.352-.353-.354a4.494 4.494 0 0 0-2.889-1.306z" color="#000" font-family="sans-serif" font-weight="400" overflow="visible"/>
  <path d="M9.5 8A1.5 1.5 0 0 0 8 9.5 1.5 1.5 0 0 0 9.5 11 1.5 1.5 0 0 0 11 9.5 1.5 1.5 0 0 0 9.5 8zm0 1a.5.5 0 0 1 .5.5.5.5 0 0 1-.5.5.5.5 0 0 1-.5-.5.5.5 0 0 1 .5-.5z"/>
  <path d="M4.994 0C3.736.015 2.815-.03 2.063.385a1.88 1.88 0 0 0-.838.998C1.06 1.822 1 2.343 1 3v9h1V3c0-.592.063-1.006.16-1.266.098-.26.202-.371.385-.472C2.911 1.06 3.741 1.015 5 1h7V0H4.998z" color="#000" font-family="sans-serif" font-weight="400" overflow="visible"/>
 </g>
</svg>
